contributed-vectors/furgonetka.svg

<svg xmlns="http://www.w3.org/2000/svg" xml:space="preserve" style="fill-rule:evenodd;clip-rule:evenodd;stroke-linecap:round;stroke-linejoin:round;stroke-miterlimit:1.5" viewBox="0 0 192 192"><circle cx="88" cy="88" r="88" style="fill:#fff" transform="translate(8 8)"/><path d="M153.235 60.402v69.576L96 163.374v-51.807a29.999 29.999 0 0 1 14.637-25.768l42.598-25.397Z" style="fill:none;stroke:#9abeff;stroke-width:8.07px" transform="translate(26.77 26.544) scale(.7198)"/><path d="m112.13 139.265 6.458-3.71.088-11.669 5.942-3.177-8.821-8.821-9.89 18.904 6.053-3.339.17 11.812Z" style="fill:#9abeff" transform="translate(26.77 26.544) scale(.7198)"/><path d="m122.931 78.469 30.304-18.067L96 26.094 37.841 60.402l33.721 19.785" style="fill:none;stroke:#9abeff;stroke-width:8.07px" transform="translate(26.77 26.544) scale(.7198)"/><path d="M37.841 129.978V60.402l43.341 25.429A30 30 0 0 1 96 111.706v51.668l-58.159-33.396Z" style="fill:none;stroke:#9abeff;stroke-width:8.07px" transform="translate(26.77 26.544) scale(.7198)"/></svg>

<?xml version="1.0" encoding="UTF-8" standalone="no"?>
<!DOCTYPE svg PUBLIC "-//W3C//DTD SVG 1.1//EN" "http://www.w3.org/Graphics/SVG/1.1/DTD/svg11.dtd">
<svg width="100%" height="100%" viewBox="0 0 192 192" version="1.1" xmlns="http://www.w3.org/2000/svg" xmlns:xlink="http://www.w3.org/1999/xlink" xml:space="preserve" xmlns:serif="http://www.serif.com/" style="fill-rule:evenodd;clip-rule:evenodd;stroke-linecap:round;stroke-linejoin:round;stroke-miterlimit:1.5;">
    <g id="Layer1">
        <g transform="matrix(1,0,0,1,8,8)">
            <circle cx="88" cy="88" r="88" style="fill:white;"/>
        </g>
        <g transform="matrix(0.719802,0,0,0.719802,26.7696,26.5443)">
            <path d="M153.235,60.402L153.235,129.978L96,163.374L96,111.567C96,100.999 101.56,91.21 110.637,85.799C127.595,75.689 153.235,60.402 153.235,60.402Z" style="fill:none;stroke:rgb(154,190,255);stroke-width:8.07px;"/>
            <path id="a" d="M112.13,139.265L118.588,135.555L118.676,123.886L124.618,120.709L115.797,111.888L105.907,130.792L111.96,127.453L112.13,139.265Z" style="fill:rgb(154,190,255);"/>
            <path d="M122.931,78.469L153.235,60.402L96,26.094L37.841,60.402L71.562,80.187" style="fill:none;stroke:rgb(154,190,255);stroke-width:8.07px;"/>
            <path d="M37.841,129.978L37.841,60.402C37.841,60.402 63.951,75.721 81.182,85.831C90.361,91.217 96,101.063 96,111.706L96,163.374L37.841,129.978Z" style="fill:none;stroke:rgb(154,190,255);stroke-width:8.07px;"/>
        </g>
    </g>
</svg>
